X:50
T:Sam's Humour
M:2/4
L:1/8
B:Thompson's Compleat Collection of 200 Favourite Country Dances, vol. 1 (London, 1757)
Z:Transcribed and edited by Fynnian Titford-Mock, 2007
Z:abc's:AK/Fiddler's Companion
K:D
A d2 e|"tr"f2 ed|"tr"f2 ed|ec"tr"BA|A d2 e|f2 ed|edcB|{B}A4:|
|:(3Bcd AA|(3cde .A.A|(3def .A.A|(3efg .A.A|(3agf .a.a|(3gfe .g.g|(3fed .d.d|d4:|

